X: 381
T: A Tailor I Am
R: jig
M: 6/8
K: Gmajor
|:d|BGB dBA|GBA G2B|dcB c2d|ecA Adc|
BGB dBA|GBA G2B|dcB Adc|BGF G2:|
|:d|dBd g2a|bfa g2e|dcB c2d|ecA A2a|
afd g2a|bfa g2e|dcB Adc|BGF G2:|

